dist/img/whatsap.svg

<svg width="75" height="75" viewBox="0 0 75 75" fill="none" xmlns="http://www.w3.org/2000/svg">
<mask id="mask0_378_121" style="mask-type:alpha" maskUnits="userSpaceOnUse" x="0" y="0" width="75" height="75">
<path fill-rule="evenodd" clip-rule="evenodd" d="M17.05 0.0369797C15.3774 0.0964355 13.2217 0.227295 12.2419 0.425049C10.7463 0.727081 9.33383 1.18501 8.15922 1.78368C6.77914 2.48701 5.54225 3.38437 4.47423 4.45072C3.40376 5.51913 2.5028 6.75718 1.79665 8.13931C1.19965 9.30762 0.74198 10.7115 0.438665 12.1986C0.236925 13.1883 0.103502 15.3601 0.0430189 17.0435C0.0184917 17.7315 0.00590708 18.6219 0.00590708 19.0326L0 55.9616C0 56.3706 0.0124562 57.2613 0.036855 57.9501C0.0963111 59.6226 0.227166 61.7783 0.425053 62.7581C0.726956 64.2536 1.18501 65.6662 1.78355 66.8408C2.48701 68.221 3.38424 69.4576 4.4506 70.5258C5.51901 71.5961 6.75718 72.4971 8.13918 73.2033C9.30763 73.8002 10.7115 74.258 12.1985 74.5613C13.1882 74.7631 15.3601 74.8965 17.0435 74.9569C17.7313 74.9815 18.6218 74.9941 19.0325 74.9941L55.9615 75C56.3706 75 57.2613 74.9877 57.9499 74.9631C59.6225 74.9036 61.7783 74.7728 62.758 74.5749C64.2536 74.2729 65.6662 73.8149 66.8407 73.2164C68.2207 72.513 69.4576 71.6156 70.5257 70.5494C71.596 69.4809 72.4969 68.2429 73.2032 66.8608C73.8001 65.6924 74.258 64.2887 74.5612 62.8015C74.7631 61.8118 74.8964 59.6398 74.9569 57.9565C74.9815 57.2686 74.994 56.3782 74.994 55.9675L75 19.0385C75 18.6294 74.9875 17.7387 74.963 17.05C74.9034 15.3775 74.7727 13.2218 74.5748 12.242C74.2729 10.7464 73.8149 9.33395 73.2163 8.15934C72.513 6.77914 71.6155 5.54238 70.5494 4.47423C69.4809 3.40401 68.2427 2.50293 66.8607 1.79678C65.6922 1.19978 64.2885 0.741982 62.8014 0.438789C61.8117 0.237053 59.6398 0.10363 57.9565 0.0432739C57.2685 0.0184937 56.3781 0.00603485 55.9674 0.00603485L19.0384 0.0001297C18.6293 0.0001297 17.7386 0.0124512 17.05 0.0369797Z" fill="white"/>
</mask>
<g mask="url(#mask0_378_121)">
<path d="M17.05 0.0360031C15.3774 0.095459 13.2217 0.226318 12.2419 0.424072C10.7463 0.726105 9.33383 1.18404 8.15922 1.7827C6.77914 2.48603 5.54225 3.38339 4.47423 4.44975C3.40376 5.51816 2.5028 6.7562 1.79665 8.13834C1.19965 9.30665 0.74198 10.7105 0.438665 12.1977C0.236925 13.1873 0.103502 15.3591 0.0430189 17.0425C0.0184917 17.7305 0.00590708 18.621 0.00590708 19.0316L0 55.9606C0 56.3696 0.0124562 57.2603 0.036855 57.9491C0.0963111 59.6216 0.227166 61.7773 0.425053 62.7571C0.726956 64.2526 1.18501 65.6652 1.78355 66.8398C2.48701 68.22 3.38424 69.4566 4.4506 70.5248C5.51901 71.5951 6.75718 72.4961 8.13918 73.2024C9.30763 73.7992 10.7115 74.257 12.1985 74.5604C13.1882 74.7621 15.3601 74.8955 17.0435 74.9559C17.7313 74.9805 18.6218 74.9931 19.0325 74.9931L55.9615 74.999C56.3706 74.999 57.2613 74.9867 57.9499 74.9622C59.6225 74.9026 61.7783 74.7719 62.758 74.574C64.2536 74.2719 65.6662 73.8139 66.8407 73.2155C68.2207 72.512 69.4576 71.6147 70.5257 70.5484C71.596 69.4799 72.4969 68.242 73.2032 66.8598C73.8001 65.6914 74.258 64.2877 74.5612 62.8005C74.7631 61.8108 74.8964 59.6388 74.9569 57.9556C74.9815 57.2676 74.994 56.3772 74.994 55.9665L75 19.0375C75 18.6284 74.9875 17.7377 74.963 17.049C74.9034 15.3766 74.7727 13.2209 74.5748 12.2411C74.2729 10.7454 73.8149 9.33298 73.2163 8.15836C72.513 6.77816 71.6155 5.5414 70.5494 4.47325C69.4809 3.40304 68.2427 2.50195 66.8607 1.7958C65.6922 1.1988 64.2885 0.741005 62.8014 0.437813C61.8117 0.236076 59.6398 0.102654 57.9565 0.0422974C57.2685 0.0175171 56.3781 0.00505829 55.9674 0.00505829L19.0384 -0.000846863C18.6293 -0.000846863 17.7386 0.0114746 17.05 0.0360031Z" fill="url(#paint0_linear_378_121)"/>
<path fill-rule="evenodd" clip-rule="evenodd" d="M50.5039 42.4366C49.8359 42.1023 46.5517 40.4867 45.9392 40.2639C45.327 40.0411 44.8817 39.9297 44.4364 40.5982C43.9911 41.2667 42.7109 42.7708 42.3212 43.2166C41.9315 43.6622 41.5419 43.718 40.8739 43.3836C40.2059 43.0495 38.0536 42.3442 35.5021 40.0691C33.5163 38.2985 32.1756 36.1115 31.7859 35.443C31.3963 34.7745 31.7444 34.4131 32.0789 34.0801C32.3793 33.781 32.7468 33.3002 33.0808 32.9103C33.4148 32.5203 33.5262 32.2417 33.7488 31.7961C33.9715 31.3504 33.8602 30.9604 33.6931 30.6261C33.5262 30.2919 32.1903 27.005 31.6336 25.6679C31.0914 24.3658 30.5406 24.542 30.1306 24.5216C29.7414 24.5022 29.2957 24.4981 28.8503 24.4981C28.405 24.4981 27.6814 24.6653 27.069 25.3337C26.4567 26.0022 24.731 27.6179 24.731 30.9047C24.731 34.1916 27.1247 37.367 27.4587 37.8127C27.7927 38.2585 32.1691 45.0036 38.87 47.8961C40.4638 48.5842 41.7081 48.995 42.6782 49.3029C44.2785 49.811 45.7347 49.7394 46.8857 49.5674C48.169 49.3757 50.8379 47.9519 51.3946 46.392C51.9511 44.8322 51.9511 43.4951 51.7842 43.2166C51.6172 42.938 51.1719 42.7708 50.5039 42.4366ZM38.316 59.0738H38.307C34.3197 59.0722 30.409 58.0015 26.9974 55.9776L26.1859 55.496L17.7759 57.7015L20.0207 49.5044L19.4923 48.6641C17.268 45.1273 16.0933 41.0394 16.095 36.8422C16.0998 24.5945 26.068 14.6302 38.3248 14.6302C44.2599 14.6325 49.839 16.9461 54.0343 21.1448C58.2296 25.3436 60.5388 30.9247 60.5365 36.8602C60.5315 49.1088 50.5634 59.0738 38.316 59.0738ZM57.2259 17.9541C52.1784 12.9024 45.4659 10.119 38.3142 10.1162C23.5786 10.1162 11.5856 22.1046 11.5797 36.8403C11.5778 41.5507 12.8087 46.1487 15.1482 50.2015L11.3555 64.0508L25.5278 60.3345C29.4327 62.4636 33.8291 63.5855 38.3036 63.5875H38.3145H38.3146C53.0488 63.5875 65.0429 51.5975 65.0489 36.8617C65.0516 29.7205 62.2735 23.0057 57.2259 17.9541Z" fill="white"/>
</g>
<defs>
<linearGradient id="paint0_linear_378_121" x1="-8.04664e-05" y1="74.999" x2="-8.04664e-05" y2="-0.000933035" gradientUnits="userSpaceOnUse">
<stop stop-color="#25CF43"/>
<stop offset="1" stop-color="#61FD7D"/>
</linearGradient>
</defs>
</svg>

<svg width="75" height="75" fill="none" xmlns="http://www.w3.org/2000/svg"><mask id="a" style="mask-type:alpha" maskUnits="userSpaceOnUse" x="0" y="0" width="75" height="75"><path fill-rule="evenodd" clip-rule="evenodd" d="M17.05.037c-1.673.06-3.828.19-4.808.388-1.496.302-2.908.76-4.083 1.359-1.38.703-2.617 1.6-3.685 2.667a14.543 14.543 0 0 0-2.677 3.688C1.2 9.308.742 10.711.439 12.2c-.202.99-.335 3.161-.396 4.845a67.437 67.437 0 0 0-.037 1.989L0 55.962c0 .409.012 1.3.037 1.988.06 1.673.19 3.828.388 4.808.302 1.496.76 2.908 1.359 4.083.703 1.38 1.6 2.617 2.667 3.685a14.55 14.55 0 0 0 3.688 2.677c1.169.597 2.572 1.055 4.06 1.358.99.202 3.161.335 4.845.396a67.21 67.21 0 0 0 1.988.037l36.93.006c.409 0 1.3-.012 1.988-.037 1.672-.06 3.828-.19 4.808-.388 1.496-.302 2.908-.76 4.083-1.359 1.38-.703 2.617-1.6 3.685-2.667a14.552 14.552 0 0 0 2.677-3.688c.597-1.169 1.055-2.572 1.358-4.06.202-.99.335-3.161.396-4.845.025-.687.037-1.578.037-1.989L75 19.04c0-.41-.013-1.3-.037-1.989-.06-1.673-.19-3.828-.388-4.808-.302-1.496-.76-2.908-1.359-4.083a14.553 14.553 0 0 0-2.667-3.685 14.553 14.553 0 0 0-3.688-2.677C65.692 1.2 64.288.742 62.8.439c-.99-.202-3.161-.335-4.845-.396a66.627 66.627 0 0 0-1.989-.037L19.038 0c-.409 0-1.3.012-1.988.037Z" fill="#fff"/></mask><g mask="url(#a)"><path d="M17.05.036c-1.673.06-3.828.19-4.808.388-1.496.302-2.908.76-4.083 1.359-1.38.703-2.617 1.6-3.685 2.667a14.543 14.543 0 0 0-2.677 3.688C1.2 9.307.742 10.71.439 12.198c-.202.99-.335 3.161-.396 4.845a67.443 67.443 0 0 0-.037 1.989L0 55.96c0 .409.012 1.3.037 1.988.06 1.673.19 3.828.388 4.808.302 1.496.76 2.908 1.359 4.083.703 1.38 1.6 2.617 2.667 3.685a14.553 14.553 0 0 0 3.688 2.677c1.169.597 2.572 1.055 4.06 1.358.99.202 3.161.335 4.845.396a67.21 67.21 0 0 0 1.988.037l36.93.006c.409 0 1.3-.012 1.988-.037 1.672-.06 3.828-.19 4.808-.388 1.496-.302 2.908-.76 4.083-1.358a14.553 14.553 0 0 0 3.685-2.668 14.55 14.55 0 0 0 2.677-3.688c.597-1.169 1.055-2.572 1.358-4.06.202-.99.335-3.161.396-4.844.025-.688.037-1.579.037-1.99L75 19.039c0-.41-.013-1.3-.037-1.989-.06-1.672-.19-3.828-.388-4.808-.302-1.496-.76-2.908-1.359-4.083a14.553 14.553 0 0 0-2.667-3.685 14.553 14.553 0 0 0-3.688-2.677C65.692 1.199 64.288.74 62.8.438c-.99-.202-3.161-.335-4.845-.396a66.627 66.627 0 0 0-1.989-.037L19.038 0c-.409 0-1.3.012-1.988.037Z" fill="url(#b)"/><path fill-rule="evenodd" clip-rule="evenodd" d="M50.504 42.437c-.668-.335-3.952-1.95-4.565-2.173-.612-.223-1.057-.334-1.503.334-.445.669-1.725 2.173-2.115 2.619-.39.445-.78.501-1.447.167-.668-.334-2.82-1.04-5.372-3.315-1.986-1.77-3.326-3.958-3.716-4.626-.39-.668-.042-1.03.293-1.363.3-.299.668-.78 1.002-1.17.334-.39.445-.668.668-1.114.222-.446.111-.836-.056-1.17-.167-.334-1.503-3.621-2.06-4.958-.542-1.302-1.092-1.126-1.502-1.146-.39-.02-.835-.024-1.28-.024-.446 0-1.17.167-1.782.836-.612.668-2.338 2.284-2.338 5.57 0 3.288 2.394 6.463 2.728 6.909.334.445 4.71 7.19 11.411 10.083a38.44 38.44 0 0 0 3.808 1.407c1.6.508 3.057.436 4.208.264 1.283-.191 3.952-1.615 4.509-3.175.556-1.56.556-2.897.39-3.175-.168-.279-.613-.446-1.281-.78ZM38.316 59.074h-.009a22.192 22.192 0 0 1-11.31-3.096l-.811-.482-8.41 2.206 2.245-8.198-.529-.84a22.157 22.157 0 0 1-3.397-11.822c.005-12.247 9.973-22.212 22.23-22.212a22.074 22.074 0 0 1 15.71 6.515 22.077 22.077 0 0 1 6.502 15.715c-.005 12.249-9.974 22.214-22.221 22.214Zm18.91-41.12c-5.048-5.052-11.76-7.835-18.912-7.838-14.735 0-26.728 11.989-26.734 26.724a26.672 26.672 0 0 0 3.568 13.361l-3.793 13.85 14.173-3.717a26.724 26.724 0 0 0 12.776 3.253h.01c14.735 0 26.729-11.99 26.735-26.725.003-7.142-2.776-13.856-7.823-18.908Z" fill="#fff"/></g><defs><linearGradient id="b" x1="0" y1="74.999" x2="0" y2="-.001" gradientUnits="userSpaceOnUse"><stop stop-color="#25CF43"/><stop offset="1" stop-color="#61FD7D"/></linearGradient></defs></svg>
